X:1
T:The Charming Young Widow
M:3/4
L:1/4
K:C
 G| c GE/2-D/2| C D E| F Ad/2-c/2| B G B| c G E| F G A| G c B| c2 G|\
 c GE/2-D/2| C D E| F Fd/2-c/2| B G A/2B/2| c/2 G z/2 E| F G A| G/2 c z/2 B|\
 c2 d| e c e| d B G| A3/2B/2-c/2 d/2| B G G/2G/2| e c e| d B G| c B A|\
 G2A/2-B/2| c G E| C/2 C D/2 E| F Ad/2-c/2| B G B| c G E| F3/2 G/2 A|\
 G c3/2 B/2| c2||
